public/images/about-us-background-overlay.svg

<svg height="465" viewBox="0 0 1416 465" width="1416" xmlns="http://www.w3.org/2000/svg" xmlns:xlink="http://www.w3.org/1999/xlink"><defs><filter id="a" height="282.5%" width="281.7%" x="-91.2%" y="-91.2%"><feOffset dx="0" dy="0" in="SourceAlpha" result="shadowOffsetOuter1"/><feGaussianBlur in="shadowOffsetOuter1" result="shadowBlurOuter1" stdDeviation="7.5"/><feColorMatrix in="shadowBlurOuter1" result="shadowMatrixOuter1" type="matrix" values="0 0 0 0 0   0 0 0 0 0   0 0 0 0 0  0 0 0 0.2 0"/><feMerge><feMergeNode in="shadowMatrixOuter1"/><feMergeNode in="SourceGraphic"/></feMerge></filter><ellipse id="b" cx="19.836188" cy="20" rx="19.836188" ry="20"/><filter id="c" height="152.5%" width="152.9%" x="-26.5%" y="-26.2%"><feOffset dx="0" dy="0" in="SourceAlpha" result="shadowOffsetOuter1"/><feGaussianBlur in="shadowOffsetOuter1" result="shadowBlurOuter1" stdDeviation="3.5"/><feColorMatrix in="shadowBlurOuter1" type="matrix" values="0 0 0 0 0.926432292   0 0 0 0 0.926432292   0 0 0 0 0.926432292  0 0 0 0.5 0"/></filter><circle id="d" cx="1131" cy="111" r="20"/><filter id="e" height="160%" width="160%" x="-30%" y="-30%"><feOffset dx="0" dy="0" in="SourceAlpha" result="shadowOffsetOuter1"/><feGaussianBlur in="shadowOffsetOuter1" result="shadowBlurOuter1" stdDeviation="4"/><feColorMatrix in="shadowBlurOuter1" type="matrix" values="0 0 0 0 0   0 0 0 0 0   0 0 0 0 0  0 0 0 0.2 0"/></filter><circle id="f" cx="355" cy="131" r="20"/><filter id="g" height="160%" width="160%" x="-30%" y="-30%"><feOffset dx="0" dy="0" in="SourceAlpha" result="shadowOffsetOuter1"/><feGaussianBlur in="shadowOffsetOuter1" result="shadowBlurOuter1" stdDeviation="4"/><feColorMatrix in="shadowBlurOuter1" type="matrix" values="0 0 0 0 0   0 0 0 0 0   0 0 0 0 0  0 0 0 0.2 0"/></filter></defs><g fill="none" fill-rule="evenodd"><path d="m0 0h1416v465h-1416z" fill="#fff"/><g fill="#e7edf6"><circle cx="174" cy="111" r="37"/><circle cx="1240" cy="53" r="12"/><circle cx="1094" cy="111" r="37"/></g><g filter="url(#a)" transform="translate(190 72)"><use fill="#000" filter="url(#c)" xlink:href="#b"/><use fill="#fdbe2d" fill-rule="evenodd" xlink:href="#b"/><path d="m16.2230082 0h-14.01960785c-.89307598 0-1.61764706.70261438-1.61764706 1.56862745v9.41176475c0 .866013.72457108 1.5686274 1.61764706 1.5686274h14.01960785c.893076 0 1.617647-.7026144 1.617647-1.5686274v-9.41176475c0-.86601307-.724571-1.56862745-1.617647-1.56862745zm-14.01960785 1.04575163h14.01960785c.2965686 0 .5392157.23529412.5392157.52287582v1.35294118c-.7380515.60457516-1.7928922 1.43790849-5.0753677 3.96405229-.5695465.43790849-1.69178919 1.49346405-2.47365193 1.48039215-.78186275.0130719-1.90747549-1.04248366-2.47365196-1.48039215-3.28247549-2.5261438-4.33731618-3.35947713-5.07536765-3.96405229v-1.35294118c0-.2875817.24264706-.52287582.53921569-.52287582zm14.01960785 10.45751637h-14.01960785c-.29656863 0-.53921569-.2352941-.53921569-.5228758v-6.69934645c.76838235.61111111 1.98161765 1.55555556 4.40471814 3.42156863.6908701.53594771 1.91084559 1.71568627 3.14430147 1.70915033 1.22671573.00980392 2.43658093-1.16013072 3.14430143-1.70915033 2.4231005-1.86601307 3.6363358-2.81045752 4.4047182-3.42156863v6.69934645c0 .2875817-.2426471.5228758-.5392157.5228758z" fill="#fff" fill-rule="nonzero" transform="translate(10.369488 13.228758)"/></g><use fill="#000" filter="url(#e)" xlink:href="#d"/><use fill="#43c3af" fill-rule="evenodd" xlink:href="#d"/><path d="m19.6444444 6.85714286c1.5961112 0 2.8888889-1.27857143 2.8888889-2.85714286s-1.2927777-2.85714286-2.8888889-2.85714286c-1.5961111 0-2.8888888 1.27857143-2.8888888 2.85714286s1.2927777 2.85714286 2.8888888 2.85714286zm0-4.57142857c.9569445 0 1.7333334.76785714 1.7333334 1.71428571s-.7763889 1.71428571-1.7333334 1.71428571c-.9569444 0-1.7333333-.76785714-1.7333333-1.71428571s.7763889-1.71428571 1.7333333-1.71428571zm-8.0888888 5.71428571c2.2352777 0 4.0444444-1.78928571 4.0444444-4s-1.8091667-4-4.0444444-4c-2.23527782 0-4.04444449 1.78928571-4.04444449 4s1.80916667 4 4.04444449 4zm0-6.85714286c1.5925 0 2.8888888 1.28214286 2.8888888 2.85714286s-1.2963888 2.85714286-2.8888888 2.85714286c-1.59250004 0-2.88888893-1.28214286-2.88888893-2.85714286s1.29638889-2.85714286 2.88888893-2.85714286zm8.8111111 6.85714286h-1.4444445c-.5488889 0-1.0580555.17142857-1.4841666.46071429.3394444.22857142.6463888.49642857.9172222.8.1769444-.075.3683333-.11785715.5669444-.11785715h1.4444445c.8738889 0 1.5888889.76785715 1.5888889 1.71428576 0 .3142857.26.5714285.5777777.5714285.3177778 0 .5777778-.2571428.5777778-.5714285 0-1.57500004-1.2313889-2.8571429-2.7444444-2.8571429zm-16.90000003-1.14285714c1.59611111 0 2.88888889-1.27857143 2.88888889-2.85714286s-1.29277778-2.85714286-2.88888889-2.85714286-2.88888889 1.27857143-2.88888889 2.85714286 1.29277778 2.85714286 2.88888889 2.85714286zm0-4.57142857c.95694444 0 1.73333333.76785714 1.73333333 1.71428571s-.77638889 1.71428571-1.73333333 1.71428571c-.95694445 0-1.73333334-.76785714-1.73333334-1.71428571s.77638889-1.71428571 1.73333334-1.71428571zm10.98138893 6.42857142c-1.2061112 0-1.5058334.42857143-2.8925.42857143-1.3866667 0-1.68638893-.42857143-2.89250004-.42857143-1.31083334 0-2.58555556.57857143-3.33305556 1.67499999-.44777778.6571429-.70777778 1.4464286-.70777778 2.2964286v1.6c0 .9464286.77638889 1.7142857 1.73333334 1.7142857h10.40000004c.9569444 0 1.7333333-.7678571 1.7333333-1.7142857v-1.6c0-.85-.26-1.6392857-.7077778-2.2964286-.7475-1.09642856-2.0222222-1.67499999-3.3330555-1.67499999zm2.8852777 5.57142859c0 .3142857-.26.5714286-.5777777.5714286h-10.40000004c-.31777778 0-.57777778-.2571429-.57777778-.5714286v-1.6c0-.5928572.17694444-1.1678572.50916666-1.6571429.49833334-.7321428 1.38666667-1.17142854 2.3725-1.17142854.98944445 0 1.34333336.42857144 2.89611116.42857144 1.5527777 0 1.9066666-.42857144 2.8925-.42857144.9858333 0 1.8741666.43928574 2.3725 1.17142854.3322222.4892857.5091666 1.0642857.5091666 1.6571429v1.6zm-11.66027774-5.82500001c-.42972223-.28928572-.93888889-.46071429-1.48416667-.46071429h-1.44444445c-1.51305555 0-2.74444444 1.28214286-2.74444444 2.8571429 0 .3142857.26.5714285.57777778.5714285s.57777778-.2571428.57777778-.5714285c0-.94642861.715-1.71428576 1.58888888-1.71428576h1.44444445c.19861111 0 .39.04285715.56694444.11785715.27083334-.30357143.58138889-.57142858.91722223-.8z" fill="#fff" fill-rule="nonzero" transform="translate(1119 103)"/><use fill="#000" filter="url(#g)" xlink:href="#f"/><use fill="#234c7c" fill-rule="evenodd" xlink:href="#f"/><path d="m17.4142359 11.3365539h-15.67632848v-11.07890495c0-.14235104-.11890097-.25764895-.26570049-.25764895h-.53140096c-.14679952 0-.26570048.11529791-.26570048.25764895v11.59420295c0 .284702.23780193.5152979.53140096.5152979h16.20772945c.1467995 0 .2657005-.1152979.2657005-.257649v-.5152979c0-.142351-.118901-.257649-.2657005-.257649zm-13.47300723-4.92657c-.10362318.10048309-.10362318.26376811 0 .3642512l.37563406.36425121c.10362319.10048309.27201087.10048309.37563406 0l2.41422101-2.31916264 2.81277174 2.72753623c.20757846.20128825.54402176.20128825.75160026 0l3.1063708-3.01223832 1.4626811 1.41835749c.1644022.15942029.3663346.23059581.5646135.23059581.4144928 0 .8123793-.31239936.8123793-.78389694v-3.84766506c0-.2879227-.2407911-.52141707-.5377114-.52141707h-3.9679046c-.7187198 0-1.0784118.84251208-.5702596 1.3352657l1.4849335 1.43993559-2.7307367 2.64798712-2.81077896-2.72560387c-.20691425-.20064412-.54202898-.20128824-.74960749-.0016103zm8.78870773-4.34879227h2.8243961v2.73880837z" fill="#fff" fill-rule="nonzero" transform="translate(346 125)"/><circle cx="941" cy="29" fill="#e75768" r="4"/><circle cx="1248" cy="148" fill="#fdbe2d" r="4"/><circle cx="323" cy="61" fill="#234c7c" r="4"/><circle cx="224" cy="177" fill="#e75768" r="4"/></g></svg>

<?xml version="1.0" encoding="UTF-8"?>
<svg width="1416px" height="465px" viewBox="0 0 1416 465" version="1.1" xmlns="http://www.w3.org/2000/svg" xmlns:xlink="http://www.w3.org/1999/xlink">
    <title>Group</title>
    <defs>
        <filter x="-91.2%" y="-91.2%" width="281.7%" height="282.5%" filterUnits="objectBoundingBox" id="filter-1">
            <feOffset dx="0" dy="0" in="SourceAlpha" result="shadowOffsetOuter1"></feOffset>
            <feGaussianBlur stdDeviation="7.5" in="shadowOffsetOuter1" result="shadowBlurOuter1"></feGaussianBlur>
            <feColorMatrix values="0 0 0 0 0   0 0 0 0 0   0 0 0 0 0  0 0 0 0.2 0" type="matrix" in="shadowBlurOuter1" result="shadowMatrixOuter1"></feColorMatrix>
            <feMerge>
                <feMergeNode in="shadowMatrixOuter1"></feMergeNode>
                <feMergeNode in="SourceGraphic"></feMergeNode>
            </feMerge>
        </filter>
        <ellipse id="path-2" cx="19.8361876" cy="20" rx="19.8361876" ry="20"></ellipse>
        <filter x="-26.5%" y="-26.2%" width="152.9%" height="152.5%" filterUnits="objectBoundingBox" id="filter-3">
            <feOffset dx="0" dy="0" in="SourceAlpha" result="shadowOffsetOuter1"></feOffset>
            <feGaussianBlur stdDeviation="3.5" in="shadowOffsetOuter1" result="shadowBlurOuter1"></feGaussianBlur>
            <feColorMatrix values="0 0 0 0 0.926432292   0 0 0 0 0.926432292   0 0 0 0 0.926432292  0 0 0 0.5 0" type="matrix" in="shadowBlurOuter1"></feColorMatrix>
        </filter>
        <circle id="path-4" cx="1131" cy="111" r="20"></circle>
        <filter x="-30.0%" y="-30.0%" width="160.0%" height="160.0%" filterUnits="objectBoundingBox" id="filter-5">
            <feOffset dx="0" dy="0" in="SourceAlpha" result="shadowOffsetOuter1"></feOffset>
            <feGaussianBlur stdDeviation="4" in="shadowOffsetOuter1" result="shadowBlurOuter1"></feGaussianBlur>
            <feColorMatrix values="0 0 0 0 0   0 0 0 0 0   0 0 0 0 0  0 0 0 0.2 0" type="matrix" in="shadowBlurOuter1"></feColorMatrix>
        </filter>
        <circle id="path-6" cx="355" cy="131" r="20"></circle>
        <filter x="-30.0%" y="-30.0%" width="160.0%" height="160.0%" filterUnits="objectBoundingBox" id="filter-7">
            <feOffset dx="0" dy="0" in="SourceAlpha" result="shadowOffsetOuter1"></feOffset>
            <feGaussianBlur stdDeviation="4" in="shadowOffsetOuter1" result="shadowBlurOuter1"></feGaussianBlur>
            <feColorMatrix values="0 0 0 0 0   0 0 0 0 0   0 0 0 0 0  0 0 0 0.2 0" type="matrix" in="shadowBlurOuter1"></feColorMatrix>
        </filter>
    </defs>
    <g id="Page-1" stroke="none" stroke-width="1" fill="none" fill-rule="evenodd">
        <g id="Artboard-Copy-6" transform="translate(0.000000, -119.000000)">
            <g id="Group" transform="translate(0.000000, 119.000000)">
                <rect id="Rectangle" fill="#FFFFFF" x="0" y="0" width="1416" height="465"></rect>
                <circle id="Oval" fill="#E7EDF6" cx="174" cy="111" r="37"></circle>
                <circle id="Oval-Copy-2" fill="#E7EDF6" cx="1240" cy="53" r="12"></circle>
                <circle id="Oval-Copy-4" fill="#E7EDF6" cx="1094" cy="111" r="37"></circle>
                <g id="Group-2" filter="url(#filter-1)" transform="translate(190.000000, 72.000000)">
                    <g id="Oval-Copy-3">
                        <use fill="black" fill-opacity="1" filter="url(#filter-3)" xlink:href="#path-2"></use>
                        <use fill="#FDBE2D" fill-rule="evenodd" xlink:href="#path-2"></use>
                    </g>
                    <g id="envelope" transform="translate(10.369488, 13.228758)" fill="#FFFFFF" fill-rule="nonzero">
                        <path d="M16.2230082,0 L2.20340035,0 C1.31032437,0 0.585753289,0.702614379 0.585753289,1.56862745 L0.585753289,10.9803922 C0.585753289,11.8464052 1.31032437,12.5490196 2.20340035,12.5490196 L16.2230082,12.5490196 C17.1160842,12.5490196 17.8406552,11.8464052 17.8406552,10.9803922 L17.8406552,1.56862745 C17.8406552,0.702614379 17.1160842,0 16.2230082,0 Z M2.20340035,1.04575163 L16.2230082,1.04575163 C16.5195768,1.04575163 16.7622239,1.28104575 16.7622239,1.56862745 L16.7622239,2.92156863 C16.0241724,3.52614379 14.9693317,4.35947712 11.6868562,6.88562092 C11.1173097,7.32352941 9.99506701,8.37908497 9.21320427,8.36601307 C8.43134152,8.37908497 7.30572878,7.32352941 6.73955231,6.88562092 C3.45707682,4.35947712 2.40223613,3.52614379 1.66418466,2.92156863 L1.66418466,1.56862745 C1.66418466,1.28104575 1.90683172,1.04575163 2.20340035,1.04575163 Z M16.2230082,11.503268 L2.20340035,11.503268 C1.90683172,11.503268 1.66418466,11.2679739 1.66418466,10.9803922 L1.66418466,4.28104575 C2.43256701,4.89215686 3.64580231,5.83660131 6.0689028,7.70261438 C6.7597729,8.23856209 7.97974839,9.41830065 9.21320427,9.41176471 C10.43992,9.42156863 11.6497852,8.25163399 12.3575057,7.70261438 C14.7806062,5.83660131 15.9938415,4.89215686 16.7622239,4.28104575 L16.7622239,10.9803922 C16.7622239,11.2679739 16.5195768,11.503268 16.2230082,11.503268 Z" id="Shape"></path>
                    </g>
                </g>
                <g id="Oval-Copy">
                    <use fill="black" fill-opacity="1" filter="url(#filter-5)" xlink:href="#path-4"></use>
                    <use fill="#43C3AF" fill-rule="evenodd" xlink:href="#path-4"></use>
                </g>
                <g id="users" transform="translate(1119.000000, 103.000000)" fill="#FFFFFF" fill-rule="nonzero">
                    <path d="M19.6444444,6.85714286 C21.2405556,6.85714286 22.5333333,5.57857143 22.5333333,4 C22.5333333,2.42142857 21.2405556,1.14285714 19.6444444,1.14285714 C18.0483333,1.14285714 16.7555556,2.42142857 16.7555556,4 C16.7555556,5.57857143 18.0483333,6.85714286 19.6444444,6.85714286 Z M19.6444444,2.28571429 C20.6013889,2.28571429 21.3777778,3.05357143 21.3777778,4 C21.3777778,4.94642857 20.6013889,5.71428571 19.6444444,5.71428571 C18.6875,5.71428571 17.9111111,4.94642857 17.9111111,4 C17.9111111,3.05357143 18.6875,2.28571429 19.6444444,2.28571429 Z M11.5555556,8 C13.7908333,8 15.6,6.21071429 15.6,4 C15.6,1.78928571 13.7908333,0 11.5555556,0 C9.32027778,0 7.51111111,1.78928571 7.51111111,4 C7.51111111,6.21071429 9.32027778,8 11.5555556,8 Z M11.5555556,1.14285714 C13.1480556,1.14285714 14.4444444,2.425 14.4444444,4 C14.4444444,5.575 13.1480556,6.85714286 11.5555556,6.85714286 C9.96305556,6.85714286 8.66666667,5.575 8.66666667,4 C8.66666667,2.425 9.96305556,1.14285714 11.5555556,1.14285714 Z M20.3666667,8 L18.9222222,8 C18.3733333,8 17.8641667,8.17142857 17.4380556,8.46071429 C17.7775,8.68928571 18.0844444,8.95714286 18.3552778,9.26071429 C18.5322222,9.18571429 18.7236111,9.14285714 18.9222222,9.14285714 L20.3666667,9.14285714 C21.2405556,9.14285714 21.9555556,9.91071429 21.9555556,10.8571429 C21.9555556,11.1714286 22.2155556,11.4285714 22.5333333,11.4285714 C22.8511111,11.4285714 23.1111111,11.1714286 23.1111111,10.8571429 C23.1111111,9.28214286 21.8797222,8 20.3666667,8 L20.3666667,8 Z M3.46666667,6.85714286 C5.06277778,6.85714286 6.35555556,5.57857143 6.35555556,4 C6.35555556,2.42142857 5.06277778,1.14285714 3.46666667,1.14285714 C1.87055556,1.14285714 0.577777778,2.42142857 0.577777778,4 C0.577777778,5.57857143 1.87055556,6.85714286 3.46666667,6.85714286 Z M3.46666667,2.28571429 C4.42361111,2.28571429 5.2,3.05357143 5.2,4 C5.2,4.94642857 4.42361111,5.71428571 3.46666667,5.71428571 C2.50972222,5.71428571 1.73333333,4.94642857 1.73333333,4 C1.73333333,3.05357143 2.50972222,2.28571429 3.46666667,2.28571429 Z M14.4480556,8.71428571 C13.2419444,8.71428571 12.9422222,9.14285714 11.5555556,9.14285714 C10.1688889,9.14285714 9.86916667,8.71428571 8.66305556,8.71428571 C7.35222222,8.71428571 6.0775,9.29285714 5.33,10.3892857 C4.88222222,11.0464286 4.62222222,11.8357143 4.62222222,12.6857143 L4.62222222,14.2857143 C4.62222222,15.2321429 5.39861111,16 6.35555556,16 L16.7555556,16 C17.7125,16 18.4888889,15.2321429 18.4888889,14.2857143 L18.4888889,12.6857143 C18.4888889,11.8357143 18.2288889,11.0464286 17.7811111,10.3892857 C17.0336111,9.29285714 15.7588889,8.71428571 14.4480556,8.71428571 L14.4480556,8.71428571 Z M17.3333333,14.2857143 C17.3333333,14.6 17.0733333,14.8571429 16.7555556,14.8571429 L6.35555556,14.8571429 C6.03777778,14.8571429 5.77777778,14.6 5.77777778,14.2857143 L5.77777778,12.6857143 C5.77777778,12.0928571 5.95472222,11.5178571 6.28694444,11.0285714 C6.78527778,10.2964286 7.67361111,9.85714286 8.65944444,9.85714286 C9.64888889,9.85714286 10.0027778,10.2857143 11.5555556,10.2857143 C13.1083333,10.2857143 13.4622222,9.85714286 14.4480556,9.85714286 C15.4338889,9.85714286 16.3222222,10.2964286 16.8205556,11.0285714 C17.1527778,11.5178571 17.3297222,12.0928571 17.3297222,12.6857143 L17.3297222,14.2857143 L17.3333333,14.2857143 Z M5.67305556,8.46071429 C5.24333333,8.17142857 4.73416667,8 4.18888889,8 L2.74444444,8 C1.23138889,8 0,9.28214286 0,10.8571429 C0,11.1714286 0.26,11.4285714 0.577777778,11.4285714 C0.895555556,11.4285714 1.15555556,11.1714286 1.15555556,10.8571429 C1.15555556,9.91071429 1.87055556,9.14285714 2.74444444,9.14285714 L4.18888889,9.14285714 C4.3875,9.14285714 4.57888889,9.18571429 4.75583333,9.26071429 C5.02666667,8.95714286 5.33722222,8.68928571 5.67305556,8.46071429 L5.67305556,8.46071429 Z" id="Shape"></path>
                </g>
                <g id="Oval">
                    <use fill="black" fill-opacity="1" filter="url(#filter-7)" xlink:href="#path-6"></use>
                    <use fill="#234C7C" fill-rule="evenodd" xlink:href="#path-6"></use>
                </g>
                <g id="chart-line-copy" transform="translate(346.000000, 125.000000)" fill="#FFFFFF" fill-rule="nonzero">
                    <path d="M17.4142359,11.3365539 L1.73790742,11.3365539 L1.73790742,0.257648953 C1.73790742,0.115297907 1.61900645,0 1.47220693,0 L0.940805968,0 C0.794006451,0 0.675105485,0.115297907 0.675105485,0.257648953 L0.675105485,11.8518519 C0.675105485,12.1365539 0.912907418,12.3671498 1.20650645,12.3671498 L17.4142359,12.3671498 C17.5610354,12.3671498 17.6799364,12.2518519 17.6799364,12.1095008 L17.6799364,11.5942029 C17.6799364,11.4518519 17.5610354,11.3365539 17.4142359,11.3365539 Z M3.94122867,6.4099839 C3.83760549,6.51046699 3.83760549,6.67375201 3.94122867,6.7742351 L4.31686273,7.13848631 C4.42048592,7.2389694 4.5888736,7.2389694 4.69249679,7.13848631 L7.1067178,4.81932367 L9.91948954,7.5468599 C10.127068,7.74814815 10.4635113,7.74814815 10.6710898,7.5468599 L13.7774606,4.53462158 L15.2401417,5.95297907 C15.4045439,6.11239936 15.6064763,6.18357488 15.8047552,6.18357488 C16.219248,6.18357488 16.6171345,5.87117552 16.6171345,5.39967794 L16.6171345,1.55201288 C16.6171345,1.26409018 16.3763434,1.03059581 16.0794231,1.03059581 L12.1115185,1.03059581 C11.3927987,1.03059581 11.0331067,1.87310789 11.5412589,2.36586151 L13.0261924,3.8057971 L10.2954557,6.45378422 L7.48467674,3.72818035 C7.27776249,3.52753623 6.94264776,3.52689211 6.73506925,3.72657005 L3.94122867,6.4099839 Z M12.7299364,2.06119163 L15.5543325,2.06119163 L15.5543325,4.8 L12.7299364,2.06119163 Z" id="Shape"></path>
                </g>
                <circle id="Oval-Copy-5" fill="#E75768" cx="941" cy="29" r="4"></circle>
                <circle id="Oval-Copy-6" fill="#FDBE2D" cx="1248" cy="148" r="4"></circle>
                <circle id="Oval-Copy-6" fill="#234C7C" cx="323" cy="61" r="4"></circle>
                <circle id="Oval-Copy-6" fill="#E75768" cx="224" cy="177" r="4"></circle>
            </g>
        </g>
    </g>
</svg>
